flaticon/hand-gestures/tap-94.svg

<svg xmlns="http://www.w3.org/2000/svg" width="32" height="32" viewBox="0 0 24 24">
    <path d="M 22 8.398438 C 21.640625 8.398438 21.28125 8.519531 21 8.761719 L 21 8.398438 C 21 7.441406 20.238281 6.398438 19.199219 6.398438 C 18.839844 6.398438 18.480469 6.519531 18.199219 6.761719 C 18.199219 5.839844 17.398438 4.800781 16.398438 4.800781 C 16.039062 4.800781 15.679688 4.921875 15.398438 5.160156 L 15.398438 2 C 15.398438 1.039062 14.640625 0 13.601562 0 C 12.558594 0 11.800781 1.039062 11.800781 2 L 11.800781 10.480469 C 11.441406 9.71875 10.960938 9 10.480469 8.519531 C 9.839844 7.878906 8.558594 7.839844 7.839844 8.441406 C 7.640625 8.640625 6.960938 9.359375 7.878906 10.640625 C 8.71875 11.839844 9.398438 14.480469 9.398438 16 C 9.398438 19.199219 11.480469 20.640625 12.199219 21.039062 L 12.199219 23.601562 C 12.199219 23.839844 12.359375 24 12.601562 24 C 12.839844 24 13 23.839844 13 23.601562 L 13 20.800781 C 13 20.640625 12.921875 20.519531 12.761719 20.441406 C 12.640625 20.398438 10.199219 19.238281 10.199219 16 C 10.199219 14.519531 9.558594 11.601562 8.519531 10.160156 C 8.238281 9.800781 8 9.320312 8.359375 9.039062 C 8.761719 8.71875 9.558594 8.71875 9.921875 9.078125 C 10.921875 10.078125 11.800781 12.199219 11.800781 13.199219 C 11.800781 13.441406 11.960938 13.601562 12.199219 13.601562 C 12.441406 13.601562 12.601562 13.441406 12.601562 13.199219 L 12.601562 2 C 12.601562 1.441406 13.039062 0.800781 13.601562 0.800781 C 14.160156 0.800781 14.601562 1.441406 14.601562 2 L 14.601562 10.800781 C 14.601562 11.039062 14.761719 11.199219 15 11.199219 C 15.238281 11.199219 15.398438 11.039062 15.398438 10.800781 L 15.398438 6.800781 C 15.398438 6.238281 15.839844 5.601562 16.398438 5.601562 C 16.960938 5.601562 17.398438 6.238281 17.398438 6.800781 L 17.398438 11.199219 C 17.398438 11.441406 17.558594 11.601562 17.800781 11.601562 C 18.039062 11.601562 18.199219 11.441406 18.199219 11.199219 L 18.199219 8.398438 C 18.199219 7.839844 18.640625 7.199219 19.199219 7.199219 C 19.761719 7.199219 20.199219 7.839844 20.199219 8.398438 L 20.199219 10.320312 C 20.199219 10.359375 20.199219 10.359375 20.199219 10.398438 L 20.199219 12 C 20.199219 12.238281 20.359375 12.398438 20.601562 12.398438 C 20.839844 12.398438 21 12.238281 21 12 L 21 10.320312 C 21.039062 9.800781 21.480469 9.199219 22 9.199219 C 22.558594 9.199219 23 9.839844 23 10.398438 L 23 16 C 23 19.039062 23 19.039062 21.878906 20.558594 C 21.800781 20.640625 21.800781 20.761719 21.800781 20.839844 L 21.800781 23.601562 C 21.800781 23.839844 21.960938 24 22.199219 24 C 22.441406 24 22.601562 23.839844 22.601562 23.601562 L 22.601562 20.921875 C 23.800781 19.320312 23.800781 19.121094 23.800781 16 L 23.800781 10.398438 C 23.800781 9.441406 23.039062 8.398438 22 8.398438 Z M 22 8.398438"/>
    <path d="M17.800781 20.398438C18.039062 20.398438 18.199219 20.238281 18.199219 20 18.199219 19.761719 18.039062 19.601562 17.800781 19.601562L16.601562 19.601562C16.359375 19.601562 16.199219 19.761719 16.199219 20 16.199219 20.238281 16.359375 20.398438 16.601562 20.398438zM18.199219 21.199219L16.199219 21.199219C15.960938 21.199219 15.800781 21.359375 15.800781 21.601562 15.800781 21.839844 15.960938 22 16.199219 22L18.199219 22C18.441406 22 18.601562 21.839844 18.601562 21.601562 18.601562 21.359375 18.441406 21.199219 18.199219 21.199219zM4.558594 4.398438L3.078125 4.398438C2.800781 4.398438 2.601562 4.601562 2.601562 4.839844L2.601562 6.320312C2.601562 6.601562 2.800781 6.800781 3.078125 6.800781L4.519531 6.800781C4.800781 6.800781 5 6.601562 5.039062 6.359375L5.039062 4.878906C5.039062 4.601562 4.800781 4.398438 4.558594 4.398438zM4.199219 6L3.398438 6 3.398438 5.199219 4.199219 5.199219zM4.199219 6"/>
    <path d="M 6.199219 2.398438 C 6.199219 1.078125 5.121094 0 3.800781 0 C 2.480469 0 1.398438 1.078125 1.398438 2.398438 L 1.398438 2.800781 L 0.199219 2.800781 L 0.199219 8.398438 L 7.398438 8.398438 L 7.398438 2.800781 L 6.199219 2.800781 Z M 2.199219 2.398438 C 2.199219 1.519531 2.921875 0.800781 3.800781 0.800781 C 4.679688 0.800781 5.398438 1.519531 5.398438 2.398438 L 5.398438 2.800781 L 2.199219 2.800781 Z M 6.601562 7.601562 L 1 7.601562 L 1 3.601562 L 6.601562 3.601562 Z M 6.601562 7.601562"/>
</svg>

<svg xmlns="http://www.w3.org/2000/svg" width="32" height="32" viewBox="0 0 24 24">
    <path d="M22 8.398c-.36 0-.719.122-1 .364v-.364c0-.957-.762-2-1.8-2-.36 0-.72.122-1 .364 0-.922-.802-1.961-1.802-1.961-.359 0-.718.12-1 .36V2c0-.96-.757-2-1.796-2C12.559 0 11.8 1.04 11.8 2v8.48c-.36-.761-.84-1.48-1.32-1.96-.641-.641-1.922-.68-2.641-.079-.2.2-.88.918.039 2.2.84 1.199 1.52 3.84 1.52 5.359 0 3.2 2.081 4.64 2.8 5.04v2.562c0 .238.16.398.403.398.238 0 .398-.16.398-.398V20.8c0-.16-.078-.281-.238-.36-.121-.043-2.563-1.203-2.563-4.441 0-1.48-.64-4.398-1.68-5.84-.28-.36-.519-.84-.16-1.12.403-.321 1.2-.321 1.563.038 1 1 1.879 3.121 1.879 4.121 0 .242.16.403.398.403.242 0 .403-.16.403-.403V2c0-.559.437-1.2 1-1.2.558 0 1 .641 1 1.2v8.8c0 .24.16.4.398.4.238 0 .398-.16.398-.4v-4c0-.562.442-1.198 1-1.198.563 0 1 .636 1 1.199v4.398c0 .242.16.403.403.403.238 0 .398-.16.398-.403V8.4c0-.56.442-1.2 1-1.2.563 0 1 .64 1 1.2V12c0 .238.16.398.403.398.238 0 .398-.16.398-.398v-1.68c.04-.52.48-1.12 1-1.12.559 0 1 .64 1 1.198V16c0 3.04 0 3.04-1.121 4.559-.078.082-.078.203-.078.28v2.763c0 .238.16.398.398.398.242 0 .403-.16.403-.398v-2.68C23.8 19.32 23.8 19.122 23.8 16v-5.602c0-.957-.762-2-1.801-2zm0 0"/>
    <path d="M17.8 20.398c.24 0 .4-.16.4-.398 0-.238-.16-.398-.4-.398h-1.198c-.243 0-.403.16-.403.398 0 .238.16.398.403.398zm0 0M18.2 21.2h-2c-.24 0-.4.16-.4.402 0 .238.16.398.4.398h2c.241 0 .402-.16.402-.398 0-.243-.16-.403-.403-.403zm0 0M4.559 4.398h-1.48c-.278 0-.477.204-.477.442v1.48c0 .282.199.48.476.48H4.52c.28 0 .48-.198.52-.44V4.878a.488.488 0 0 0-.481-.48zM4.199 6h-.8v-.8h.8zm0 0"/>
    <path d="M6.2 2.398A2.404 2.404 0 0 0 3.8 0a2.407 2.407 0 0 0-2.402 2.398v.403H.2v5.597h7.2V2.801h-1.2zm-4 0c0-.878.722-1.597 1.6-1.597.88 0 1.598.719 1.598 1.597v.403H2.2zm4.402 5.204H1v-4h5.602zm0 0"/>
</svg>
